src/images/check-circle.svg

<svg xmlns="http://www.w3.org/2000/svg" width="28" height="28" fill="none" viewBox="0 0 28 28"><path fill="#71AA55" d="M27.5625 14C27.5625 21.4904 21.4904 27.5625 14 27.5625C6.50962 27.5625 0.4375 21.4904 0.4375 14C0.4375 6.50962 6.50962 0.4375 14 0.4375C21.4904 0.4375 27.5625 6.50962 27.5625 14ZM12.4312 21.1812L22.4937 11.1187C22.8354 10.777 22.8354 10.223 22.4937 9.88132L21.2563 8.64391C20.9146 8.30216 20.3606 8.30216 20.0189 8.64391L11.8125 16.8502L7.98115 13.0189C7.63946 12.6772 7.08542 12.6772 6.74368 13.0189L5.50627 14.2563C5.16458 14.598 5.16458 15.152 5.50627 15.4937L11.1938 21.1812C11.5355 21.5229 12.0895 21.5229 12.4312 21.1812V21.1812Z"/></svg>

<svg fill="none" viewBox="0 0 28 28"><path fill="#71AA55" d="M27.563 14c0 7.49-6.073 13.563-13.563 13.563S.437 21.49.437 14 6.51.437 14 .437 27.563 6.51 27.563 14zM12.43 21.181L22.494 11.12a.875.875 0 000-1.238l-1.238-1.237a.875.875 0 00-1.237 0l-8.206 8.206L7.98 13.02a.875.875 0 00-1.237 0l-1.238 1.237a.875.875 0 000 1.238l5.688 5.687a.875.875 0 001.237 0z"/></svg>
